X: 464
T: Sibao langong
%%abc-version 2.0
%%abcx-abcm2ps-target-version 5.9.1 (29 Sep 2008)
%%abc-creator hum2abc beta
%%abcx-conversion-date 2013/10/02 07:52:30
%%abc-edited-by Helmut Schaffrath
%%humdrum-veritas 3219660777
%%humdrum-veritas-data 1641330503
%%continueall 1
%%barnumbers 0
L: 1/8
M: 2/4
K: F
F2F A [I:setbarnb 1]| 
G A D C | 
c3f | 
d c A G | 
cf2d | 
c d c G | 
F3D/ C/ | 
F4 | 
G AG2 | 
c2f d | 
c> B c c | 
G F D C | 
B d c G | 
B G F D | 
FC2D/ F/ | 
C4 |]  



